!!!COM: Mozart, Wolfgang Amadeus
!!!CDT: 1756/01/27/-1791/12/05/
!!!CNT: German
!!!OTL: Piano Sonata No. 4 in E-flat major
!!!SCT1: K<sup>1</sup> 282
!!!SCT2: K<sup>6</sup> 189g
!!!OMV: 1
!!!OMD: Adagio
!!!ODT: 1774///
**kern	**kern	**dynam
*staff2	*staff1	*staff1/2
*>[A,A,B,B,C]	*>[A,A,B,B,C]	*>[A,A,B,B,C]
*>norep[A,B,C]	*>norep[A,B,C]	*>norep[A,B,C]
*>A	*>A	*>A
*clefG2	*clefG2	*clefG2
*k[b-e-a-]	*k[b-e-a-]	*k[b-e-a-]
*E-:	*E-:	*E-:
*M4/4	*M4/4	*M4/4
*met(c)	*met(c)	*met(c)
*MM84	*MM84	*MM84
=1-	=1-	=1-
*^	*	*
4g	4e-	(8.b-L	f
.	.	16ccJk)	.
4g	4e-	[4b-	.
4f	4d	8b-L]	.
.	.	(8b-	.
8gL	4c	8ee-)	.
8anJ	.	8ee-'J	.
=2	=2	=2	=2
4b-	4B-	(16ee-LL	.
.	.	16dd	.
.	.	16cc	.
.	.	16b-JJ)	.
*clefF4	*clefF4	*	*
4d	2B-	4b-	.
4en	.	(16ddLL	.
.	.	16ccJJ)	.
.	.	4cc	.
4f	[4A-X	.	.
.	.	(16ffLL	.
.	.	16ddJJ)	.
=3	=3	=3	=3
4d	4A-]	(16ccLL	.
.	.	16b-JJ)	.
.	.	4b-	.
2e-X	4G	.	.
.	.	(16ee-LL	.
.	.	16b-JJ)	.
.	4F	4.b-	.
4d	4B-	.	.
.	.	8a-T	.
*v	*v	*	*
.	16gqLL	.
.	16a-qJJ	.
=4	=4	=4
!LO:TX:i:t=legato	!	!
16E-LL	8g	p
16G	.	.
16B-	8r	.
16e-JJ	.	.
16E-LL	8b-	.
16G	.	.
16B-	8r	.
16e-JJ	.	.
16E-LL	8r	f
16G	.	.
.	(32ee-qLLL	.
.	32ffqJJJ	.
16B-	(8ggL)	.
16e-JJ	.	.
16E-LL	8ff	.
16G	.	.
16B-	8ee-J)	.
16e-JJ	.	.
=5	=5	=5
16FLL	(8.ee-TTL	p
16A-	.	.
16d	.	.
16fJJ	32ddLL	.
.	32ee-JJJ	.
16FLL	4dd)	.
16A-	.	.
16d	.	.
16fJJ	.	.
16FLL	8r	.
16A-	.	.
.	(32ffqLLL	.
.	32ggqJJJ	.
16d	(8aa-L)	f
16fJJ	.	.
16FLL	8gg	.
16A-	.	.
16d	8ffJ)	.
16fJJ	.	.
=6	=6	=6
16GLL	(8.ffTTL	p
16B-	.	.
16e-	.	.
16gJJ	32ee-LL	.
.	32ffJJJ	.
16GLL	4ee-)	.
16B-	.	.
16e-	.	.
16gJJ	.	.
16G-LL	8r	.
16B-	.	.
.	(32ffqLLL	.
.	32ee-q	.
.	32ddqJJJ	.
16e-	()8ee-L	.
16g-JJ	.	.
16G-LL	8ff	.
16B-	.	.
16e-	8gg-J)	.
16g-JJ	.	.
=7	=7	=7
16FLL	(8b-L	.
16An	.	.
16c	8anJ)	.
16e-JJ	.	.
16FLL	8r	.
16A	.	.
16c	8cc'	f
16e-JJ	.	.
16EnLL	(8ee-XL	.
16G	.	.
16B-	8dd-J)	.
16d-JJ	.	.
16ELL	8r	.
16G	.	.
16B-	8b-'	.
16d-JJ	.	.
=8	=8	=8
*^	*	*
(16cLL	[2F	(16anLL>	p
16d-	.	16b-	.
16c	.	16a	.
16B-JJ	.	16dd-JJ	.
16AnLL	.	16ccLL>	.
16d-	.	16b- 16een	.
16c	.	16a 16ff	.
16B-JJ)	.	16en) 16dd-XJJ	.
(4B-	4F_	(>4e ((4dd-	.
8A)	8F]	8f) 8cc))	.
8r	8r	8r	.
*v	*v	*	*
*clefG2	*	*
=9	=9	=9
16B-	4r	f
16dn 16fLL	.	p
16d 16f	.	.
16d 16fJJ	.	.
16B-	16r	.
16d 16fLL	(16b-LL	p
16d 16f	16ddn	.
16d 16fJJ	16ffJJ)	.
16c	(16ffLL	.
16e- 16fLL	16ee-)	.
16e- 16f	16cc'	.
16e- 16fJJ	16an'JJ	.
16c	16r	.
16e- 16fLL	(16aLL	.
16e- 16f	16cc	.
16e- 16fJJ	16ee-JJ)	.
=10	=10	=10
16B-	(16ggLL	.
16d 16fLL	16ff)	.
16d 16f	16dd'	.
16d 16fJJ	16b-'JJ	.
16B-	16r	.
16d 16fLL	(16b-LL	.
16d 16f	16dd	.
16d 16fJJ	16ffJJ)	.
16c	(16ffLL	.
16e- 16fLL	16ee-)	.
16e- 16f	16cc'	.
16e- 16fJJ	16an'JJ	.
16c	16r	.
16e- 16fLL	(16aLL	.
16e- 16f	16cc	.
16e- 16fJJ	16ee-JJ)	.
=11	=11	=11
16B-	(16ggLL	.
16d 16fLL	16ff)	.
16d 16f	16dd'	.
16d 16fJJ	16b-'JJ	.
*clefF4	*	*
(16BB-LL	16r	.
16D	16ff'	f
16C	(32eenLLL	.
.	32ff	.
16E-JJ)	32aan	.
.	32ffJJJ	.
(16DLL	16bb-LL	.
16F	16ffJ)	.
16B-	[8ffJ	.
16dJJ	.	.
16DLL	16ffLL]	.
16F	(16ddJJ	.
16B-	32ffLLL	.
.	32dd)	.
16dJJ	(32ff	.
.	32ddJJJ)	.
=12	=12	=12
16E-LL	(16ggLL	.
16G	16ee-XJ)	.
16c	[8ee-J	.
16e-JJ	.	.
16E-LL	16ee-LL]	.
16G	(16ccJJ	.
16c	32ee-LLL	.
.	32cc)	.
16e-JJ	(32ee-	.
.	32ccJJJ)	.
16FLL	(16ffLL	.
16B-	[16ddJJ)	.
16d	32ddLLL]	.
.	(32b-	.
16fJJ	32dd	.
.	32b-JJJ)	.
16FLL	(16ee-LL	.
16An	[16ccJJ)	.
16c	32ccLLL]	.
.	(32an	.
16e-JJ)	32cc	.
.	32aJJJ)	.
=13	=13	=13
8G 8d	(32ccLLL	.
.	32b-	.
.	32an	.
.	32b-JJJ	.
8r	16ccLL	.
.	16ddJJ	.
4r	16ee-LL	.
.	32ddqq	.
.	16ff	.
.	32ee-qq	.
.	16gg	.
.	32ffqq	.
.	16aanJJ)	.
*clefG2	*	*
8d 8b-	32bb-LLL	p
.	(32ff	.
.	32een	.
.	32ffJJJ	.
8r	32ggLLL	.
.	32ff	.
.	32ee	.
.	32ffJJJ)	.
8d 8b-L	32r	f
.	(32ffLLL	.
.	32ee	.
.	32ffJJJ)	.
8d 8b-J	32r	.
.	(32eeLLL	.
.	32ff	.
.	32ff#JJJ	.
=14	=14	=14
8e- 8b-	32gg'LLL)	.
.	(32cc	p
.	32bn	.
.	32ccJJJ	.
8r	32ddLLL	.
.	32cc	.
.	32b	.
.	32ccJJJ)	f
8e- 8b-L	32r	.
.	(32ccLLL	.
.	32b	.
.	32ccJJJ)	.
8en 8b-J	32r	.
.	(32bLLL	.
.	32cc	.
.	32dd-JJJ	.
4f 4b-	16ddnLL	.
.	16ee-X	.
.	16een	.
.	16ffJJ)	.
*clefF4	*	*
8r	(8.ccTL	.
8F 8An 8e-	.	.
.	32b-LL	.
.	32ccJJJ	.
=15	=15	=15
16B- 16d	8b-')	.
16d (16fLL	.	.
16c 16e-	8r	.
16B- 16dJJ)	.	.
.	(16anqLL	.
.	16ccqJJ	.
16r	8ee-')	.
16An (16cLL	.	.
16G 16B-	8r	.
16F 16AJJ)	.	.
4BB- 4B-	16dd	.
.	(32B-LLL	.
.	32dJJJ	.
.	32cLLL	.
.	32e-	.
.	32d	.
.	32fJJJ	.
4r	32e-LLL	.
.	32g	.
.	32f	.
.	32a-JJJ	.
.	32gLLL	.
.	32b-	.
.	32a-)	.
.	32ccJJJ	.
*clefG2	*	*
=16:|!|:	=16:|!|:	=16:|!|:
*>B	*>B	*>B
4d- 4en 4g	(16.b-LL	.
.	32ccJJk)	.
.	4b-	.
4d- 4e 4g	.	p
.	4bb-	.
4c 4e 4g	.	.
.	(8ggL	.
4c 4e 4g	8een	.
.	8b-J)	.
=17	=17	=17
4c 4f	(16b-LL	.
.	16anJJ)	.
.	4a	<
4c 4f	.	.
.	4a-	.
4c 4e-X	.	.
.	(32gqq	.
.	4a-)	.
4c- 4e-	.	.
.	(32gqq	.
.	[8a-)	.
=18	=18	=18
4B- 4dn	16a-LL]	f
.	(16aa-	.
.	16gg	.
.	16aa-JJ)	.
4B- 4a-	16r	.
.	(16ffLL	.
.	16een	.
.	16ffJJ)	.
4B- 4f	16r	.
.	(16ddLL	.
.	16cc#	.
.	16ddJJ)	.
4B- 4d 4f	16r	.
.	(16a-LL	.
.	16g	.
.	16a-JJ)	.
=19	=19	=19
16r	4g	p
(16e-LL	.	.
16d	.	.
16e-JJ)	.	.
*clefF4	*	*
16r	4e- 4g	.
(16d-LL	.	.
16c	.	<
16d-JJ)	.	.
16r	4e- 4a-	.
(16cLL	.	.
16Bn	.	.
16cJJ)	.	.
16r	4e- 4an	.
(16c-LL	.	.
16B-	.	.
16c-JJ)	.	.
=20	=20	=20
*^	*	*
4ryy	4B- 4dn	32r	f
.	.	(32b-LLL	.
.	.	32an	.
.	.	32b-JJJ	.
.	.	32aLLL	.
.	.	32b-	.
.	.	32cc	.
.	.	32b-JJJ)	.
(8cL	4B-	32r	p
.	.	(32ee-LLL	.
.	.	32dd	.
.	.	32ee-JJJ	.
8e-J)	.	32ddLLL	.
.	.	32cc	.
.	.	32b-	.
.	.	32aJJJ)	.
4d	4B-	32r	f
.	.	(32b-LLL	.
.	.	32a	.
.	.	32b-JJJ	.
.	.	32aLLL	.
.	.	32b-	.
.	.	32cc	.
.	.	32b-JJJ)	.
(8cL	4B-	32r	p
.	.	(32ee-LLL	.
.	.	32dd	.
.	.	32ee-JJJ	.
8e-J)	.	32ddLLL	.
.	.	32cc	.
.	.	32b-	.
.	.	32aJJJ)	.
=21	=21	=21	=21
4e-	4B-	8antL	f
.	.	16gqLL	.
.	.	16aqJJ	.
.	.	(16.ccL	.
.	.	32b-JJk)	.
4d	4B-	(4b-	.
2r	2r	(16bnLL)	p
.	.	16cc	.
.	.	16dd	.
.	.	16ccJJ	.
.	.	16b-LL	.
.	.	16a-	.
.	.	16g	.
.	.	16fJJ)	.
*v	*v	*	*
=22	=22	=22
!LO:TX:i:t=legato	!	!
16E-LL	8g	.
16G	.	.
16B-	8r	.
16e-JJ	.	.
16E-LL	8b-	.
16G	.	.
16B-	8r	.
16e-JJ	.	.
16D-LL	8r	.
16G	.	.
.	32ffqq	.
16B-	(32ee-LLL	f
.	32dd	.
16d-JJ	32ee-	.
.	32ffJJJ	.
16D-LL	8ee-L	.
16G	.	.
16B-	8gJ)	.
16d-JJ	.	.
=23	=23	=23
16CLL	(8b-L	p
16E-	.	.
16A-	8a-J)	.
16cJJ	.	.
16CLL	8a-'	.
16E-	.	.
16A-	8r	.
16cJJ	.	.
*clefG2	*	*
16GLL	8r	.
16B-	.	.
.	32ffqq	.
16e-	(32ee-LLL	f
.	32dd	.
16gJJ	32ee-	.
.	32ffJJJ)	.
16GLL	8ee-'L	.
16B-	.	.
16e-	8dd-'J	.
16gJJ	.	.
=24	=24	=24
16A-LL	(8bnL	p
16c	.	.
16e-	8ccJ)	.
16a-JJ	.	.
16A-LL	8r	.
16c	.	.
16e-	8cc'	f
16a-JJ	.	.
16A-LL	(8ee-L	.
16B-	.	.
16dn	8ddnJ)	.
16fJJ	.	.
16A-LL	8r	.
16B-	.	.
16d	8b-	p
16fJJ	.	.
=25	=25	=25
16GLL	(8ffL	.
16B-	.	.
16e-	8ee-J)	.
16gJJ	.	.
16GLL	8r	.
16B-	.	.
16e-	8ee-'	f
16gJJ	.	.
16AnLL	(8ffL	.
16c	.	.
16e-	8gg-J)	.
16g-JJ	.	.
16ALL	8r	.
16c	.	.
16e-	8ee-'	.
16g-JJ	.	.
=26	=26	=26
*^	*	*
(16fLL	[2B-	(16ddLL	p
16g-	.	16ee-	.
16f	.	16dd	.
16e-JJ	.	16gg-JJ	.
16dLL	.	16ffLL	.
16g-	.	16ee- 16aan	.
16f	.	16dd 16bb-	.
16e-JJ)	.	16an 16gg-XJJ)	.
(4e-	4B-_	(4a (4gg-	.
8d)	8B-]	8b-) 8ff)	.
8r	8r	8r	.
*v	*v	*	*
*clefF4	*	*
=27	=27	=27
16E-	4r	f
16Gn 16B-LL	.	p
16G 16B-	.	.
16G 16B-JJ	.	.
16E-	16r	.
16G 16B-LL	(16e-LL	p
16G 16B-	16gn	.
16G 16B-JJ	16b-JJ)	.
16F	(16b-LL	.
16A- 16B-LL	16a-)	.
16A- 16B-	16f'	.
16A- 16B-JJ	16d'JJ	.
16F	16r	.
16A- 16B-LL	(16dLL	.
16A- 16B-	16f	.
16A- 16B-JJ	16a-JJ)	.
=28	=28	=28
16E-	(16ccLL	.
16G 16B-LL	16b-)	.
16G 16B-	16g'	.
16G 16B-JJ	16e-'JJ	.
*clefG2	*	*
16e-	16r	.
16g 16b-LL	(16ee-LL	.
16g 16b-	16gg	.
16g 16b-JJ	16bb-JJ)	.
16f	(16bb-LL	.
16a- 16b-LL	16aa-)	.
16a- 16b-	16ff'	.
16a- 16b-JJ	16dd'JJ	.
16f	16r	.
16a- 16b-LL	(16ddLL	.
16a- 16b-	16ff	.
16a- 16b-JJ	16aa-JJ)	.
=29	=29	=29
16e-	(16cccLL	.
16g 16b-LL	16bb-)	.
16g 16b-	16gg'	.
16g 16b-JJ	16ee-'JJ	f
*clefF4	*	*
(16E-LL	16r	.
16G	16b-'	.
16F	(32anLLL	.
.	32b-	.
16A-JJ	32dd	.
.	32b-JJJ	.
16GLL	16ee-LL	.
16B-	16b-J)	.
16e-	[8b-J	.
16gJJ)	.	.
(>16GGLL	16b-LL]	.
16BB-	(16gJJ	.
16E-	32b-LLL	.
.	32g)	.
16GJJ	(32b-	.
.	32gJJJ)	.
=30	=30	=30
16AA-LL	(16ccLL	.
16C	16a-J)	.
16F	[8a-J	.
16A-JJ	.	.
16AA-LL	16a-LL]	.
16C	(16fJJ	.
16F	32a-LLL	.
.	32f)	.
16A-JJ	(32a-	.
.	32fJJJ)	.
16BB-LL	(16b-LL	.
16E-	[16gJJ)	.
16G	32gLLL]	.
.	(32e-	.
16B-JJ	32g	.
.	32e-JJJ)	.
16BB-LL	(16a-LL	.
16D	[16fJJ)	.
16F	32fLLL]	.
.	(32d	.
16A-JJ	32f	.
.	32dJJJ)	.
=31	=31	=31
8C 8G)	(32fLLL	.
.	32e-	.
.	32d	.
.	32e-JJJ	.
8r	16fLL	.
.	16gJJ	.
4r	16a-LL	.
.	32gqq	.
.	16b-	.
.	32a-qq	.
.	16cc	.
.	32b-qq	.
.	16ddJJ	.
*clefG2	*	*
8g 8b-	32ee-LLL)	p
.	(32bb-	.
.	32aan	.
.	32bb-JJJ	.
8r	32cccLLL	.
.	32bb-	.
.	32aa	.
.	32bb-JJJ)	.
8g 8ee-L	32r	f
.	(32bb-LLL	.
.	32aa	.
.	32bb-JJJ)	.
8g 8ee-J	32r	.
.	(32aaLLL	.
.	32bb-	.
.	32bbnJJJ	.
=32	=32	=32
8a- 8ee-	32ccc'LLL)	p
.	(32ff	.
.	32een	.
.	32ffJJJ	.
8r	32ggLLL	.
.	32ff	.
.	32ee	.
.	32ffJJJ)	.
8a- 8ee-L	32r	f
.	(32ffLLL	.
.	32ee	.
.	32ffJJJ)	.
8an 8ee-J	32r	.
.	(32eeLLL	.
.	32ff	.
.	32gg-JJJ	.
4b- 4ee-	16ggnLL	.
.	16aa-X	.
.	16aan	.
.	16bb-JJ)	.
8r	(8.ffTL	.
8B- 8d 8a-	.	.
.	32ee-LL	.
.	32ffJJJ	.
=33	=33	=33
16e-' 16g'	8ee-')	.
(16g 16b-LL	.	.
16f 16a-	8r	.
16e-) 16gJJ	.	.
.	(32ddqLLL	.
.	32ffqJJJ	.
16r	8aa-')	.
(16d 16fLL	.	.
16c 16e-	8r	.
16B-) 16dJJ	.	.
*clefF4	*	*
4E- 4e-	16r	.
.	(32ggLLL	.
.	32bb-JJJ	.
.	32aa-LLL	.
.	32ff	.
.	32ee-	.
.	32ggJJJ	.
4r	32ffLLL	.
.	32dd	.
.	32cc	.
.	32ee-JJJ	.
.	32ddLLL	.
.	32b-	.
.	32a-	.
.	32ccJJJ)	.
*clefG2	*	*
=34:|!	=34:|!	=34:|!
*>C	*>C	*>C
*^	*	*
4e- 4g	2.ryy	8.b-L	.
.	.	16ccJk	.
4e- 4g	.	8b-L	.
.	.	8b-J	.
4d 4f	.	16b-LL	.
.	.	(16bn	.
.	.	16cc	.
.	.	16ddJJ	.
(8.gL	4c	16ee-LL	.
.	.	16ff	.
.	.	16gg	.
16anJk)	.	16ee-JJ)	.
=35	=35	=35	=35
.	.	(32ffqq	.
4b-	4B-	8ee-)	.
.	.	4dd	p
4a-X	4d	.	.
.	.	([8cc	.
8g	8e-	24ccLL]	.
.	.	24b-X	.
.	.	24ddJJ	.
8r	8r	24ee-LL	.
.	.	24gg	.
.	.	24bnJJ	.
8A- 8a-	4ryy	24ccLL	.
.	.	24ee-	.
.	.	24gJJ	.
8r	.	24a-LL	.
.	.	24cc	.
.	.	24fJJ)	.
*v	*v	*	*
*clefF4	*	*
=36	=36	=36
*	*^	*
8r	4.e-	4.ryy	pp
8BB- 8GL	.	.	.
(8BB- 8G	.	.	.
8BB- 8A-J)	16gLL	8d	.
.	16fJJ	.	.
[4E- (4A-	(4f	(4d	.
8E-] 8G)	8e-)	8e-)	.
8r	8r	8r	.
*	*v	*v	*
==	==	==
*-	*-	*-
!!!RDF**kern: > = above
!!!RDF**kern: < = below
!!!YOR: Alte Mozart-Ausgabe, Band 20, Breitkopf &amp; H&auml;rtel 1877-1883.
!!!YOY: 1878
!!!YEC: 2018 Craig Stuart Sapp
!!!YEM: Licence: (CC BY-NC-SA 4.0) https://creativecommons.org/licenses/by-nc-sa/4.0
!!!YER: 2018
!!!ENC: Craig Stuart Sapp
!!!END: 2009/10/05
!!!EED: Craig Stuart Sapp
!!!EEV: 2018/06/16
!!!EFL: 10/69
!!!AGN: piano sonata
!!!AFR: sonata-allegro
!!!title: @{OTL}, K 282 (189g), mvmt. @{OMV}
